gama.ui.shared/icons_svg/dark/gaml/_method.svg

<?xml version="1.0" encoding="UTF-8" standalone="no"?>
<!DOCTYPE svg PUBLIC "-//W3C//DTD SVG 1.1//EN" "http://www.w3.org/Graphics/SVG/1.1/DTD/svg11.dtd">
<svg xmlns:dc="http://purl.org/dc/elements/1.1/" xmlns:xl="http://www.w3.org/1999/xlink" version="1.1" xmlns="http://www.w3.org/2000/svg" viewBox="-57.587094 -2834.0862 24 18" width="24" height="18">
  <defs/>
  <g id="SOURCES" stroke-dasharray="none" stroke="none" stroke-opacity="1" fill="none" fill-opacity="1">
    <title>SOURCES</title>
    <g id="SOURCES_New">
      <title>New</title>
      <g id="Group_10496">
        <g id="Graphic_10177"/>
        <g id="Group_10076">
          <title>ruler-combined</title>
          <g id="Graphic_10077">
            <path d="M -51.987094 -2823.6862 L -45.337094 -2823.6862 C -44.371094 -2823.6862 -43.587094 -2822.9022 -43.587094 -2821.9362 L -43.587094 -2819.8362 C -43.587094 -2818.8702 -44.371094 -2818.0862 -45.337094 -2818.0862 L -55.837094 -2818.0862 C -56.803094 -2818.0862 -57.587094 -2818.8702 -57.587094 -2819.8362 L -57.587094 -2830.3362 C -57.587094 -2831.3022 -56.803094 -2832.0862 -55.837094 -2832.0862 L -53.737094 -2832.0862 C -52.771094 -2832.0862 -51.987094 -2831.3022 -51.987094 -2830.3362 Z M -52.750094 -2819.4862 L -55.137094 -2819.4862 C -55.333094 -2819.4862 -55.487094 -2819.6402 -55.487094 -2819.8362 C -55.487094 -2820.0322 -55.333094 -2820.1862 -55.137094 -2820.1862 L -52.687094 -2820.1862 L -52.687094 -2821.5862 L -54.437094 -2821.5862 C -54.633094 -2821.5862 -54.787094 -2821.7402 -54.787094 -2821.9362 C -54.787094 -2822.1322 -54.633094 -2822.2862 -54.437094 -2822.2862 L -52.687094 -2822.2862 L -52.687094 -2823.6862 L -55.137094 -2823.6862 C -55.333094 -2823.6862 -55.487094 -2823.8402 -55.487094 -2824.0362 C -55.487094 -2824.2322 -55.333094 -2824.3862 -55.137094 -2824.3862 L -52.687094 -2824.3862 L -52.687094 -2825.7862 L -54.437094 -2825.7862 C -54.633094 -2825.7862 -54.787094 -2825.9402 -54.787094 -2826.1362 C -54.787094 -2826.3322 -54.633094 -2826.4862 -54.437094 -2826.4862 L -52.687094 -2826.4862 L -52.687094 -2827.8862 L -55.137094 -2827.8862 C -55.333094 -2827.8862 -55.487094 -2828.0402 -55.487094 -2828.2362 C -55.487094 -2828.4322 -55.333094 -2828.5862 -55.137094 -2828.5862 L -52.687094 -2828.5862 L -52.687094 -2829.9862 L -54.437094 -2829.9862 C -54.633094 -2829.9862 -54.787094 -2830.1402 -54.787094 -2830.3362 C -54.787094 -2830.5322 -54.633094 -2830.6862 -54.437094 -2830.6862 L -52.750094 -2830.6862 C -52.897094 -2831.0922 -53.282094 -2831.3862 -53.737094 -2831.3862 L -55.837094 -2831.3862 C -56.418094 -2831.3862 -56.887094 -2830.9172 -56.887094 -2830.3362 L -56.887094 -2819.8362 C -56.887094 -2819.2552 -56.418094 -2818.7862 -55.837094 -2818.7862 L -53.737094 -2818.7862 C -53.282094 -2818.7862 -52.890094 -2819.0802 -52.750094 -2819.4862 Z M -51.987094 -2822.9862 L -51.987094 -2819.8362 C -51.987094 -2819.4442 -52.120094 -2819.0802 -52.337094 -2818.7862 L -45.337094 -2818.7862 C -44.756094 -2818.7862 -44.287094 -2819.2552 -44.287094 -2819.8362 L -44.287094 -2821.9362 C -44.287094 -2822.5172 -44.756094 -2822.9862 -45.337094 -2822.9862 Z M -47.087094 -2822.2862 L -45.687094 -2822.2862 C -45.302094 -2822.2862 -44.987094 -2821.9712 -44.987094 -2821.5862 L -44.987094 -2820.1862 C -44.987094 -2819.8012 -45.302094 -2819.4862 -45.687094 -2819.4862 L -47.087094 -2819.4862 C -47.472094 -2819.4862 -47.787094 -2819.8012 -47.787094 -2820.1862 L -47.787094 -2821.5862 C -47.787094 -2821.9712 -47.472094 -2822.2862 -47.087094 -2822.2862 Z M -47.087094 -2821.5862 L -47.087094 -2820.1862 L -45.687094 -2820.1862 L -45.687094 -2821.5862 Z" fill="#999"/>
          </g>
        </g>
      </g>
    </g>
  </g>
</svg>

<svg height="18" viewBox="-57.587 -2834.086 24 18" width="24" xmlns="http://www.w3.org/2000/svg"><path d="m-51.987094-2823.6862h6.65c.966 0 1.75.784 1.75 1.75v2.1c0 .966-.784 1.75-1.75 1.75h-10.5c-.966 0-1.75-.784-1.75-1.75v-10.5c0-.966.784-1.75 1.75-1.75h2.1c.966 0 1.75.784 1.75 1.75zm-.763 4.2h-2.387c-.196 0-.35-.154-.35-.35s.154-.35.35-.35h2.45v-1.4h-1.75c-.196 0-.35-.154-.35-.35s.154-.35.35-.35h1.75v-1.4h-2.45c-.196 0-.35-.154-.35-.35s.154-.35.35-.35h2.45v-1.4h-1.75c-.196 0-.35-.154-.35-.35s.154-.35.35-.35h1.75v-1.4h-2.45c-.196 0-.35-.154-.35-.35s.154-.35.35-.35h2.45v-1.4h-1.75c-.196 0-.35-.154-.35-.35s.154-.35.35-.35h1.687c-.147-.406-.532-.7-.987-.7h-2.1c-.581 0-1.05.469-1.05 1.05v10.5c0 .581.469 1.05 1.05 1.05h2.1c.455 0 .847-.294.987-.7zm.763-3.5v3.15c0 .392-.133.756-.35 1.05h7c.581 0 1.05-.469 1.05-1.05v-2.1c0-.581-.469-1.05-1.05-1.05zm4.9.7h1.4c.385 0 .7.315.7.7v1.4c0 .385-.315.7-.7.7h-1.4c-.385 0-.7-.315-.7-.7v-1.4c0-.385.315-.7.7-.7zm0 .7v1.4h1.4v-1.4z" fill="#999"/></svg>
